images_elementary_svg/cmd/sc_repeat.svg

<svg height="16" width="16" xmlns="http://www.w3.org/2000/svg" xmlns:xlink="http://www.w3.org/1999/xlink"><linearGradient id="a" gradientTransform="matrix(0 -.39448 .42345 0 -.496 18.346)" gradientUnits="userSpaceOnUse" x1="22.044" x2="39.788" y1="18.086" y2="18.336"><stop offset="0" stop-color="#fff"/><stop offset=".286" stop-color="#fff" stop-opacity=".235"/><stop offset=".585" stop-color="#fff" stop-opacity=".157"/><stop offset="1" stop-color="#fff" stop-opacity=".392"/></linearGradient><linearGradient id="b" gradientTransform="matrix(.36133 0 0 .3366 -1.14 .135)" gradientUnits="userSpaceOnUse" x1="21.783" x2="21.783" y1="43.122" y2="4.501"><stop offset="0" stop-color="#cdf87e"/><stop offset=".262" stop-color="#a2e34f"/><stop offset=".661" stop-color="#68b723"/><stop offset="1" stop-color="#1d7e0d"/></linearGradient><linearGradient id="c" gradientTransform="matrix(-.36133 0 0 .3366 17.14 .135)" gradientUnits="userSpaceOnUse" x1="23.732" x2="23.732" y1="4.418" y2="33.876"><stop offset="0" stop-color="#fff3cb"/><stop offset=".262" stop-color="#fdde76"/><stop offset=".661" stop-color="#f9c440"/><stop offset="1" stop-color="#e48b20"/></linearGradient><linearGradient id="d" gradientTransform="matrix(0 -.39448 -.42345 0 16.496 18.346)" gradientUnits="userSpaceOnUse" x1="38.941" x2="20.576" y1="15.991" y2="15.991"><stop offset="0" stop-color="#fff"/><stop offset=".512" stop-color="#fff" stop-opacity=".235"/><stop offset=".585" stop-color="#fff" stop-opacity=".157"/><stop offset="1" stop-color="#fff" stop-opacity=".392"/></linearGradient><path d="m11.61 13.16c3.75-3.27 2.557-8.604-3.11-8.747v-2.763l-6.14 4.604 6.14 4.603v-2.74c3.298-.128 5.006 2.88 2.648 5.042z" display="block" fill="url(#c)" transform="matrix(-1 0 0 1 14.27 -1.15)"/><path d="m12.49 11.555c1.62-1.895.41-6.574-4.962-6.207l-.056-1.703-3.57 2.61 3.57 2.636v-1.685c5.14-.496 5.502 3.584 5.018 4.35z" display="block" fill="none" stroke="url(#d)" stroke-miterlimit="7" stroke-width=".964" transform="matrix(-1 0 0 1 14.27 -1.15)"/><path d="m2.66 12.01c-3.75-3.27-2.556-8.605 3.11-8.748v-2.762l6.14 4.604-6.14 4.603v-2.74c-3.298-.127-5.006 2.88-2.648 5.043z" fill="none" stroke="#cc8a00" stroke-linejoin="round"/><path d="m4.39 13.16c-3.75-3.27-2.556-8.605 3.11-8.748v-2.762l6.14 4.604-6.14 4.603v-2.74c-3.298-.128-5.006 2.88-2.648 5.042z" display="block" fill="url(#b)" transform="matrix(-1 0 0 -1 17.73 16.65)"/><g fill="none"><path d="m3.51 11.555c-1.62-1.895-.41-6.575 4.962-6.207l.056-1.703 3.57 2.61-3.57 2.636v-1.685c-5.14-.496-5.502 3.584-5.018 4.35z" display="block" opacity=".8" stroke="url(#a)" stroke-miterlimit="7" stroke-width=".964" transform="matrix(-1 0 0 -1 17.73 16.65)"/><path d="m13.34 3.49c3.75 3.27 2.557 8.604-3.11 8.747v2.763l-6.14-4.604 6.14-4.603v2.74c3.298.128 5.006-2.88 2.648-5.042z" opacity=".5" stroke="#0f5a00" stroke-linecap="round"/></g></svg>

<svg xmlns="http://www.w3.org/2000/svg" xmlns:xlink="http://www.w3.org/1999/xlink" height="16" width="16"><defs><linearGradient gradientTransform="matrix(0 -.39448 .42345 0 -.496 18.346)" gradientUnits="userSpaceOnUse" xlink:href="#a" id="f" y2="18.336" x2="39.788" y1="18.086" x1="22.044"/><linearGradient id="a"><stop offset="0" stop-color="#fff"/><stop offset=".286" stop-color="#fff" stop-opacity=".235"/><stop offset=".585" stop-color="#fff" stop-opacity=".157"/><stop offset="1" stop-color="#fff" stop-opacity=".392"/></linearGradient><linearGradient gradientTransform="matrix(.36133 0 0 .3366 -1.14 .135)" gradientUnits="userSpaceOnUse" xlink:href="#b" id="e" y2="4.501" x2="21.783" y1="43.122" x1="21.783"/><linearGradient id="b"><stop offset="0" stop-color="#cdf87e"/><stop offset=".262" stop-color="#a2e34f"/><stop offset=".661" stop-color="#68b723"/><stop offset="1" stop-color="#1d7e0d"/></linearGradient><linearGradient id="c" gradientTransform="matrix(-.36133 0 0 .3366 17.14 .135)" gradientUnits="userSpaceOnUse" x1="23.732" x2="23.732" y1="4.418" y2="33.876"><stop offset="0" stop-color="#fff3cb"/><stop offset=".262" stop-color="#fdde76"/><stop offset=".661" stop-color="#f9c440"/><stop offset="1" stop-color="#e48b20"/></linearGradient><linearGradient id="d" gradientTransform="matrix(0 -.39448 -.42345 0 16.496 18.346)" gradientUnits="userSpaceOnUse" x1="38.941" x2="20.576" y1="15.991" y2="15.991"><stop offset="0" stop-color="#fff"/><stop offset=".512" stop-color="#fff" stop-opacity=".235"/><stop offset=".585" stop-color="#fff" stop-opacity=".157"/><stop offset="1" stop-color="#fff" stop-opacity=".392"/></linearGradient></defs><path display="block" d="M11.61 13.16c3.75-3.27 2.557-8.604-3.11-8.747V1.65L2.36 6.254l6.14 4.603v-2.74c3.298-.128 5.006 2.88 2.648 5.042z" fill="url(#c)" transform="matrix(-1 0 0 1 14.27 -1.15)"/><path stroke-miterlimit="7" display="block" d="M12.49 11.555c1.62-1.895.41-6.574-4.962-6.207l-.056-1.703-3.57 2.61 3.57 2.636V7.206c5.14-.496 5.502 3.584 5.018 4.35z" fill="none" stroke="url(#d)" stroke-width=".964" transform="matrix(-1 0 0 1 14.27 -1.15)"/><path d="M2.66 12.01C-1.09 8.74.104 3.405 5.77 3.262V.5l6.14 4.604-6.14 4.603v-2.74C2.472 6.84.764 9.847 3.122 12.01z" fill="none" stroke="#cc8a00" stroke-linejoin="round"/><g><path d="M4.39 13.16C.64 9.89 1.834 4.555 7.5 4.412V1.65l6.14 4.604-6.14 4.603v-2.74c-3.298-.128-5.006 2.88-2.648 5.042z" display="block" overflow="visible" fill="url(#e)" transform="rotate(180 8.865 8.325)"/><path d="M3.51 11.555C1.89 9.66 3.1 4.98 8.472 5.348l.056-1.703 3.57 2.61-3.57 2.636V7.206c-5.14-.496-5.502 3.584-5.018 4.35z" display="block" overflow="visible" opacity=".8" fill="none" stroke="url(#f)" stroke-width=".964" stroke-miterlimit="7" transform="rotate(180 8.865 8.325)"/><path style="isolation:auto;mix-blend-mode:normal" d="M13.34 3.49c3.75 3.27 2.557 8.604-3.11 8.747V15l-6.14-4.604 6.14-4.603v2.74c3.298.128 5.006-2.88 2.648-5.042z" color="#000" overflow="visible" opacity=".5" solid-color="#000000" fill="none" stroke="#0f5a00" stroke-linecap="round"/></g></svg>
